X:2091
T:Böndernas afskjed från Gästabud i Småland
R:Marsch
Z:till abc av Jon Magnusson 2011-08-18
O:Småland
B:Ur Carl-Gustaf Tullbergs notbok
M:4/4
L:1/16
K:D
[V:1]A2Bc|:"D" d4 D3D D4 "G" gfed|"A" a4 A2A2 A4 z2g2|"D" f2e2 d2e2 f2a2 "G" g2f2|
[V:2]z4  |:z16                   |z16                |z16                        |
[V:1]"A" e2d2 c2B2 A4 A2Bc|"D" d4 D3D D4 "G" gfed|"A" a4 A2A2 A4 z2g2|
[V:2]z16                  |z16                   |z16                |
[V:1]"D" f2a2 f2d2 "G" e2g2 "A" e2c2|1 "D" d4d3d d4 A2Bc:|2 "D" d4 d3d d4 defg|]
[V:2]z16                            |1 z16              :|2 z16               |]
[V:1]|:"D" a4 a3a a4 "G" bagf|g4 "A" A3A A4 z2g2|"Bm" f2e2 "D" d2e2 "Bm" f2a2 "G" g2f2|
[V:2]|:defg defg a3a bagf      |z16               |[F4 B4][D4 A4][F4 B4][G4 B4]         |
[V:1]"E" e2d2 c2B2 "D" A4 A2Bc|d4 D3D D4 gfed      |a4 A3A A4 z2g2|
[V:2][E4 B4][^G4 B4] A4 AGFE  |D4 A,3A, [A,4 F4] z4|z16|
[V:1]f2a2 f2d2 e2g2 e2c2|1 d4 d3d d4 defg:|2 d4 d3d d4|]
[V:2]z16                |1 z16           :|2 z16      |]
(:musicend:)
(:music:)
